X:4006
T:Davy Davy Knick Knack
R:Polka
C:Trad.
S:Greenshoots
O:England
M:2/4
L:1/16
Q:1/8=160
K:G
D2|"G"GFGA B2B2|GFGA B2B2|"D7"dcBc A2A2|dcBc A2A2|
"G"GFGA B2B2|GFGA B2B2|"C"dcBc "D7"AcBA|"G"G2B2 G2:|
|:"C"Bc|"G"d3c B2d2|"Em"g2 g2 d4|"D7"dcBc A2A2|dcBc A2A2|
"G"d3c B2d2|"Em"g2 g2 d4|"D7"dcBc AcBA|"G"G2 B2 G2:|

